X: 53
T:Heather Breeze
R:Reel
M:C|
L:1/8
Q:1/2=112
K:G
|:DGBG dGBG|DFAF cFAF|DGBG dGBG|BdcA BGAG|
D~G3 dGBG|D~F3 cFAF|D~G3 dGBG|BdcA BG (3Bcd||
g2gf gbag|fede fgaf|~g3f gbag|fdcA BG (3Bcd|
g2gf gbag|fede fga2|defg abag|fdcA BGAG|]
